public/images/broadcasters/hrt.svg

<svg fill="none" height="31" viewBox="0 0 61 31" width="61" xmlns="http://www.w3.org/2000/svg"><path d="m51.2299 12.2379h-8.9599v8.9486h8.9599z" fill="#f00"/><path d="m60.1102 21.1787h-8.9569v8.9594h8.9569z" fill="#f00"/><g fill="#b2b1b1"><path d="m1.2251.138062h8.49258v12.256838h7.82542v-12.256838h8.493v29.897238h-8.493v-10.5575h-7.82542v10.5575h-8.49258z"/><path d="m17.4595 30.0846v-29.946538h11.4246v6.831938c-.2898-.03529-.6041-.05984-.9439-.05984h-1.9129v5.58614h1.9129c.3398 0 .6541-.0138.9439-.0628v11.9393l-2.8314-4.8692v10.581zm11.4246-29.946538h.743c13.5621 0 14.2286 13.968338 4.7421 17.490338-.0117 0-.2777.0775-.2895.0775l8.4181 12.3787h-10.2931l-3.3206-5.7118v-11.9393c2.0248-.2777 2.856-1.5119 2.856-2.73225 0-1.21777-.8312-2.45255-2.856-2.73125z"/><path d="m33.3105.424805h26.3195v7.421335h-8.4662v4.39146h-8.9481v-4.39146h-8.9052z"/></g><path d="m34.0522.424805h-1.6601v7.413175h1.6601z" fill="#fff"/><path d="m2.10315.138062h-2.10315v29.896938h2.10315z" fill="#fff"/><path d="m18.2916.294067h-1.6744v12.268933h1.6744z" fill="#fff"/></svg>

<svg xmlns="http://www.w3.org/2000/svg" width="61" height="31" viewBox="0 0 61 31" fill="none">
  <path d="M51.2299 12.2379H42.27V21.1865H51.2299V12.2379Z" fill="#FF0000"/>
  <path d="M60.1102 21.1787H51.1533V30.1381H60.1102V21.1787Z" fill="#FF0000"/>
  <path d="M1.2251 0.138062H9.71768V12.3949H17.5431V0.138062H26.0361V30.0353H17.5431V19.4778H9.71768V30.0353H1.2251V0.138062Z" fill="#B2B1B1"/>
  <path d="M17.4595 30.0846V0.138062H28.8841V6.97C28.5943 6.93471 28.28 6.91016 27.9402 6.91016H26.0273V12.4963H27.9402C28.28 12.4963 28.5943 12.4825 28.8841 12.4335V24.3728L26.0527 19.5036V30.0846H17.4595ZM28.8841 0.138062H29.6271C43.1892 0.138062 43.8557 14.1064 34.3692 17.6284C34.3575 17.6284 34.0915 17.7059 34.0797 17.7059L42.4978 30.0846H32.2047L28.8841 24.3728V12.4335C30.9089 12.1558 31.7401 10.9216 31.7401 9.70125C31.7401 8.48348 30.9089 7.2487 28.8841 6.97V0.138062Z" fill="#B2B1B1"/>
  <path d="M33.3105 0.424805H59.63V7.84614H51.1638V12.2376H42.2157V7.84614H33.3105V0.424805Z" fill="#B2B1B1"/>
  <path d="M34.0522 0.424805H32.3921V7.83798H34.0522V0.424805Z" fill="white"/>
  <path d="M2.10315 0.138062H0V30.035H2.10315V0.138062Z" fill="white"/>
  <path d="M18.2916 0.294067H16.6172V12.563H18.2916V0.294067Z" fill="white"/>
</svg>
